packages/calcite-ui-icons/icons/organize-template-32.svg

<?xml version="1.0" encoding="UTF-8"?><svg id="icons" xmlns="http://www.w3.org/2000/svg" viewBox="0 0 32 32"><defs><style>.cls-1{fill:none;}</style></defs><rect class="cls-1" width="32" height="32"/><path d="M28,13h-5v-1h5v1ZM28,18h-5v1h5v-1ZM28,24h-5v1h5v-1ZM22,10v5h-5v-5h5ZM21,11h-3v3h3v-3ZM22,16v5h-5v-5h5ZM21,17h-3v3h3v-3ZM22,22v5h-5v-5h5ZM21,23h-3v3h3v-3ZM15,8v21h15V8h-15ZM29,28h-13V9h13v19ZM11,12h-6v1h6v-1ZM11,15h-6v1h6v-1ZM22,5h1v-1h-1v1ZM12,21H1.75c-.41351,0-.75-.33643-.75-.75V7h11.05054c.07574-.37177.24091-.70795.46191-1H1v-2.25c0-.41357.33649-.75.75-.75h21.5c.41357,0,.75.33643.75.75v1.25h1v-1.25c0-.96649-.78351-1.75-1.75-1.75H1.75c-.96649,0-1.75.78351-1.75,1.75v16.5c0,.96649.78351,1.75,1.75,1.75h10.25v-1ZM5,19h6v-1h-6v1ZM4,9h-1v1h1v-1ZM11,9h-6v1h6v-1ZM4,12h-1v1h1v-1ZM4,15h-1v1h1v-1ZM3,19h1v-1h-1v1ZM30.5,7c.27615,0,.5.22388.5.5v22c0,.27612-.22385.5-.5.5H14.5c-.27615,0-.5-.22388-.5-.5V7.5c0-.27612.22385-.5.5-.5h16M30.5,6H14.5c-.82709,0-1.5.67291-1.5,1.5v22c0,.82709.67291,1.5,1.5,1.5h16c.82709,0,1.5-.67291,1.5-1.5V7.5c0-.82709-.67291-1.5-1.5-1.5h0Z"/></svg>

<svg xmlns="http://www.w3.org/2000/svg" viewBox="0 0 32 32"><path d="M0 0h32v32H0z" style="fill:none"/><path d="M28 13h-5v-1h5zm0 5h-5v1h5zm0 6h-5v1h5zm-6-14v5h-5v-5zm-1 1h-3v3h3zm1 5v5h-5v-5zm-1 1h-3v3h3zm1 5v5h-5v-5zm-1 1h-3v3h3zM15 8v21h15V8zm14 20H16V9h13zM11 12H5v1h6zm0 3H5v1h6zM22 5h1V4h-1zM12 21H1.75a.75.75 0 0 1-.75-.75V7h11.05a2.5 2.5 0 0 1 .462-1H1V3.75A.75.75 0 0 1 1.75 3h21.5a.75.75 0 0 1 .75.75V5h1V3.75A1.75 1.75 0 0 0 23.25 2H1.75A1.75 1.75 0 0 0 0 3.75v16.5C0 21.216.784 22 1.75 22H12zm-7-2h6v-1H5zM4 9H3v1h1zm7 0H5v1h6zm-7 3H3v1h1zm0 3H3v1h1zm-1 4h1v-1H3zM30.5 7a.5.5 0 0 1 .5.5v22a.5.5 0 0 1-.5.5h-16a.5.5 0 0 1-.5-.5v-22a.5.5 0 0 1 .5-.5zm0-1h-16c-.827 0-1.5.673-1.5 1.5v22c0 .827.673 1.5 1.5 1.5h16c.827 0 1.5-.673 1.5-1.5v-22c0-.827-.673-1.5-1.5-1.5"/></svg>
